X:49
T:The Miller's Reel
S:Bernie Waugh
R:Reel
M:4/4
L:1/8
K:A
|:\
"A"A,2CE "D"D2FA|"E"EGBG "A"A2cA|"G"BEcE dEcE|"E"BEcB AFEC|
"A"A,2CE "D"D2FA|"E"EGBG "A"A2ce|"D"fefg agaf|1"E"ecBc "A"A4:|2"E"ecBc "A"A2||
|:(3efg|\
"A"a2 ga fece|"Bm"b2bg agfe|"E"gebe gbeg|"B7"fe^df "E"e2 (3efg|
"A"a2ga fece|"C#m"fgaf fece|"Bm"fdge "D"afed|1"E"cABG "A"A2:|2"E"cABG "A"A4|]

